Suru++-Ubuntu/places/scalable/user-trash.svg

<svg width="256" height="256" version="1.1" viewBox="0 0 67.73 67.73" xmlns="http://www.w3.org/2000/svg" xmlns:xlink="http://www.w3.org/1999/xlink">
 <defs>
  <filter id="filter1574" x="-.01" y="-.01" width="1.029" height="1.024" style="color-interpolation-filters:sRGB">
   <feGaussianBlur stdDeviation=".298"/>
  </filter>
  <filter id="filter1588" x="-.07" y="-.05" width="1.134" height="1.109" style="color-interpolation-filters:sRGB">
   <feGaussianBlur stdDeviation="1.355"/>
  </filter>
  <linearGradient id="linearGradient918" x1="31.75" x2="31.75" y1="233.5" y2="293.031" gradientUnits="userSpaceOnUse">
   <stop style="stop-color:#b3b3b3" offset="0"/>
   <stop style="stop-color:#d9d9d9" offset="1"/>
  </linearGradient>
 </defs>
 <g transform="translate(0,-229.26665)">
  <path d="m33.146038 233.55533c-4.106758 0-8.008176 1.19516-8.008176 1.19516l-1.325362 0.40357v6.28342c-3.844034 0.68117-7.598782 1.79455-11.192778 3.31894l-0.0075 3.73338h-3.7334159l0.0098 3.98964h3.7236619l0.01505 33.34458c0 1.63895 0.149332 2.94192 0.56002 4.03958 0.414412 1.09781 1.161086 1.97124 2.101912 2.49391 1.877907 1.04557 4.181424 0.93269 7.291359 0.93269h21.146063c3.109936 0 5.413452 0.11282 7.29136-0.93269 0.940822-0.5221 1.680037-1.39695 2.090713-2.49391 0.410673-1.09781 0.571209-2.40063 0.571209-4.03958l-0.0076-34.67624h-3.989644c0.432156 2e-3 -8.737534 1.33166 7.879479 1.33166v-3.98964l-3.889842-2e-3 0.0075-3.73336c-3.596114-1.52568-7.353483-2.63909-11.200245-3.31894v-6.20131l-1.232019-0.44447s-3.408609-1.23186-8.101509-1.23186zm0 3.73337c3.322737 0 4.816102 0.57854 5.60012 0.82124v2.75904c-1.857309-0.20396-3.724189-0.30852-5.592656-0.31327-1.874173 0-3.744614 0.11282-5.607588 0.32173v-2.74041c0.993087-0.26105 2.882195-0.84804 5.600124-0.84804z" font-size="15" font-weight="400" letter-spacing="0" word-spacing="0" style="fill:#060606;filter:url(#filter1588);opacity:.2"/>
  <path d="m33.146038 233.55533c-4.106758 0-8.008176 1.19516-8.008176 1.19516l-1.325362 0.40357v6.28342c-3.844034 0.68117-7.598782 1.79455-11.192778 3.31894l-0.0075 3.73338h-3.7334159l0.0098 3.98964h3.7236619l0.01505 33.34458c0 1.63895 0.149332 2.94192 0.56002 4.03958 0.414412 1.09781 1.161086 1.97124 2.101912 2.49391 1.877907 1.04557 4.181424 0.93269 7.291359 0.93269h21.146063c3.109936 0 5.413452 0.11282 7.29136-0.93269 0.940822-0.5221 1.680037-1.39695 2.090713-2.49391 0.410673-1.09781 0.571209-2.40063 0.571209-4.03958l-0.0076-34.67624h-3.989644c0.432156 2e-3 -8.737534 1.33166 7.879479 1.33166v-3.98964l-3.889842-2e-3 0.0075-3.73336c-3.596114-1.52568-7.353483-2.63909-11.200245-3.31894v-6.20131l-1.232019-0.44447s-3.408609-1.23186-8.101509-1.23186zm0 3.73337c3.322737 0 4.816102 0.57854 5.60012 0.82124v2.75904c-1.857309-0.20396-3.724189-0.30852-5.592656-0.31327-1.874173 0-3.744614 0.11282-5.607588 0.32173v-2.74041c0.993087-0.26105 2.882195-0.84804 5.600124-0.84804z" font-size="15" font-weight="400" letter-spacing="0" word-spacing="0" style="fill:#060606;filter:url(#filter1574);opacity:.1"/>
  <path d="m33.146038 233.55533c-4.106758 0-8.008176 1.19516-8.008176 1.19516l-1.325362 0.40357v6.28342c-3.844034 0.68117-7.598782 1.79455-11.192778 3.31894l-0.0075 3.73338h-3.7334159l0.0098 3.98964h3.7236619l0.01505 33.34458c0 1.63895 0.149332 2.94192 0.56002 4.03958 0.414412 1.09781 1.161086 1.97124 2.101912 2.49391 1.877907 1.04557 4.181424 0.93269 7.291359 0.93269h21.146063c3.109936 0 5.413452 0.11282 7.29136-0.93269 0.940822-0.5221 1.680037-1.39695 2.090713-2.49391 0.410673-1.09781 0.571209-2.40063 0.571209-4.03958l-0.0076-34.67624h-3.989644c0.432156 2e-3 -8.737534 1.33166 7.879479 1.33166v-3.98964l-3.889842-2e-3 0.0075-3.73336c-3.596114-1.52568-7.353483-2.63909-11.200245-3.31894v-6.20131l-1.232019-0.44447s-3.408609-1.23186-8.101509-1.23186zm0 3.73337c3.322737 0 4.816102 0.57854 5.60012 0.82124v2.75904c-1.857309-0.20396-3.724189-0.30852-5.592656-0.31327-1.874173 0-3.744614 0.11282-5.607588 0.32173v-2.74041c0.993087-0.26105 2.882195-0.84804 5.600124-0.84804z" font-size="15" font-weight="400" letter-spacing="0" word-spacing="0" style="fill:url(#linearGradient918)"/>
  <rect x="12.62" y="252.49" width="41.037" height="1.058" ry="0" style="opacity:.4"/>
  <path d="m33.415138 233.57388v3.7269c3.110437 0.034 4.571278 0.5741 5.33094 0.80926v2.759c-1.770594-0.19444-3.549867-0.29199-5.33094-0.30541v52.7265h10.311515c3.109936 0 5.413636 0.11275 7.291544-0.93276 0.940822-0.5221 1.679636-1.39694 2.090312-2.4939 0.410673-1.09781 0.571541-2.4006 0.571541-4.03955l-0.0072-33.38814c1.147219 0.0219 2.3026 0.0434 3.889168 0.0434v-3.98942l-3.889685-2e-3 0.0078-3.73311c-3.596114-1.52568-7.353588-2.63932-11.20035-3.31917v-6.20118l-1.231966-0.44441s-3.290071-1.16696-7.832596-1.21595z" style="fill:#383838;opacity:.15"/>
  <path transform="matrix(.26458333 0 0 .26458333 0 229.26665)" d="m125.27539 16.208984c-15.5216 0-30.265624 4.517578-30.265624 4.517578l-5.009766 1.525391v2l5.009766-1.525391s14.744024-4.517578 30.265624-4.517578l0.00195 0.009766c17.73695 0 30.61914 4.65625 30.61914 4.65625l4.65625 1.679688v-2l-4.65625-1.679688s-12.88219-4.65625-30.61914-4.65625l-0.00195-0.009766zm0.0293 26.458985c-7.08349 0-14.1522 0.425262-21.19336 1.214843v2c7.04116-0.789581 14.10987-1.214843 21.19336-1.214843 7.06192 0.017953 14.11697 0.412721 21.13672 1.183593v-2c-7.01975-0.770872-14.0748-1.16564-21.13672-1.183593zm35.24804 3.324219v2c14.53752 2.569259 28.73773 6.777492 42.32813 12.542968l0.00391-1.998047c-13.59162-5.766349-27.79309-9.97541-42.33204-12.544921zm-70.55273 0.007812c-14.528632 2.574501-28.719127 6.783448-42.302734 12.544922l-0.029297 14.109375h-14.109375l0.005859 2h14.103516l0.029297-14.109375c13.583607-5.761474 27.774102-9.970421 42.302734-12.544922v-2zm112.85938 26.646484-0.00391 2 14.70312 0.007813v-2l-14.69921-0.007813z" style="fill:#efefef;opacity:.2"/>
  <path transform="matrix(.26458333 0 0 .26458333 0 229.26665)" d="m125.27539 28.320312c-10.27249 0-17.41066 2.218433-21.16406 3.205079v2c3.7534-0.986646 10.89157-3.205079 21.16406-3.205079 12.55838 0 18.2028 2.186225 21.16602 3.103516v-2c-2.96322-0.917291-8.60764-3.103516-21.16602-3.103516zm77.60547 30.214844-0.02539 12.111328h0.00391l0.02539-12.109375c-0.00134-5.67e-4 -0.00257-0.001386-0.00391-0.001953zm-169.32227 14.119141 0.037109 15.078125h14.072266v-2h-14.072266l-0.03125-13.078125h-0.005859zm169.29883 12.947265v2c4.22907 0.07708 8.92991 0.13086 14.70117 0.13086v-2c-5.77126 0-10.4721-0.05378-14.70117-0.13086zm-155.13281 126.15821v2c0 6.19445 0.564981 11.11894 2.117188 15.26757 1.566281 4.14921 4.389435 7.45034 7.945312 9.42578 7.097602 3.95177 15.802556 3.5254 27.556641 3.5254h79.92187c11.75409 0 20.46099 0.42614 27.5586-3.5254 3.55586-1.97329 6.35018-5.27979 7.90234-9.42578 1.55215-4.1492 2.15821-9.07312 2.15821-15.26757v-1.9668c-0.00222 6.17847-0.6089 11.09277-2.15821 15.23437-1.55216 4.14599-4.34648 7.45249-7.90234 9.42578-7.09761 3.95154-15.80451 3.5254-27.5586 3.5254h-79.92187c-11.754085 0-20.459039 0.42637-27.556641-3.5254-3.555877-1.97544-6.379031-5.27657-7.945312-9.42578-1.552207-4.14863-2.117188-9.07312-2.117188-15.26757z" style="fill:#100000;opacity:.2"/>
  <g transform="matrix(.16778551 0 0 .14500074 5.2167631 240.13154)" style="fill:#070404;opacity:.4">
   <rect x="94.43" y="123.13" width="24.946" height="189.593" rx="12" ry="12" style="fill:#070404"/>
   <rect x="154.43" y="123.13" width="24.946" height="189.593" rx="12" ry="12" style="fill:#070404"/>
   <rect x="214.43" y="123.13" width="24.946" height="189.593" rx="12" ry="12" style="fill:#070404"/>
  </g>
 </g>
</svg>

<svg xmlns="http://www.w3.org/2000/svg" xmlns:xlink="http://www.w3.org/1999/xlink" width="256" height="256" version="1.1" viewBox="0 0 67.73 67.73">
 <defs>
  <filter id="filter1574" width="1.029" height="1.024" x="-.01" y="-.01" style="color-interpolation-filters:sRGB">
   <feGaussianBlur stdDeviation=".298"/>
  </filter>
  <filter id="filter1588" width="1.134" height="1.109" x="-.07" y="-.05" style="color-interpolation-filters:sRGB">
   <feGaussianBlur stdDeviation="1.355"/>
  </filter>
  <linearGradient id="linearGradient918" x1="31.75" x2="31.75" y1="233.5" y2="293.031" gradientUnits="userSpaceOnUse" xlink:href="#linearGradient876"/>
  <linearGradient id="linearGradient876">
   <stop offset="0" style="stop-color:#b3b3b3"/>
   <stop offset="1" style="stop-color:#d9d9d9"/>
  </linearGradient>
 </defs>
 <g transform="translate(0,-229.26665)">
  <path style="fill:#060606;opacity:0.2;filter:url(#filter1588)" d="m 33.146038,233.55533 c -4.106758,0 -8.008176,1.19516 -8.008176,1.19516 l -1.325362,0.40357 v 6.28342 c -3.844034,0.68117 -7.598782,1.79455 -11.192778,3.31894 l -0.0075,3.73338 H 8.8788061 l 0.0098,3.98964 h 3.7236619 l 0.01505,33.34458 c 0,1.63895 0.149332,2.94192 0.56002,4.03958 0.414412,1.09781 1.161086,1.97124 2.101912,2.49391 1.877907,1.04557 4.181424,0.93269 7.291359,0.93269 h 21.146063 c 3.109936,0 5.413452,0.11282 7.29136,-0.93269 0.940822,-0.5221 1.680037,-1.39695 2.090713,-2.49391 0.410673,-1.09781 0.571209,-2.40063 0.571209,-4.03958 l -0.0076,-34.67624 H 49.68271 c 0.432156,0.002 -8.737534,1.33166 7.879479,1.33166 v -3.98964 l -3.889842,-0.002 0.0075,-3.73336 c -3.596114,-1.52568 -7.353483,-2.63909 -11.200245,-3.31894 v -6.20131 l -1.232019,-0.44447 c 0,0 -3.408609,-1.23186 -8.101509,-1.23186 z m 0,3.73337 c 3.322737,0 4.816102,0.57854 5.60012,0.82124 v 2.75904 c -1.857309,-0.20396 -3.724189,-0.30852 -5.592656,-0.31327 -1.874173,0 -3.744614,0.11282 -5.607588,0.32173 v -2.74041 c 0.993087,-0.26105 2.882195,-0.84804 5.600124,-0.84804 z" font-size="15" font-weight="400" letter-spacing="0" word-spacing="0"/>
  <path d="m 33.146038,233.55533 c -4.106758,0 -8.008176,1.19516 -8.008176,1.19516 l -1.325362,0.40357 v 6.28342 c -3.844034,0.68117 -7.598782,1.79455 -11.192778,3.31894 l -0.0075,3.73338 H 8.8788061 l 0.0098,3.98964 h 3.7236619 l 0.01505,33.34458 c 0,1.63895 0.149332,2.94192 0.56002,4.03958 0.414412,1.09781 1.161086,1.97124 2.101912,2.49391 1.877907,1.04557 4.181424,0.93269 7.291359,0.93269 h 21.146063 c 3.109936,0 5.413452,0.11282 7.29136,-0.93269 0.940822,-0.5221 1.680037,-1.39695 2.090713,-2.49391 0.410673,-1.09781 0.571209,-2.40063 0.571209,-4.03958 l -0.0076,-34.67624 H 49.68271 c 0.432156,0.002 -8.737534,1.33166 7.879479,1.33166 v -3.98964 l -3.889842,-0.002 0.0075,-3.73336 c -3.596114,-1.52568 -7.353483,-2.63909 -11.200245,-3.31894 v -6.20131 l -1.232019,-0.44447 c 0,0 -3.408609,-1.23186 -8.101509,-1.23186 z m 0,3.73337 c 3.322737,0 4.816102,0.57854 5.60012,0.82124 v 2.75904 c -1.857309,-0.20396 -3.724189,-0.30852 -5.592656,-0.31327 -1.874173,0 -3.744614,0.11282 -5.607588,0.32173 v -2.74041 c 0.993087,-0.26105 2.882195,-0.84804 5.600124,-0.84804 z" font-size="15" font-weight="400" letter-spacing="0" word-spacing="0" style="fill:#060606;filter:url(#filter1574);opacity:0.1"/>
  <path style="fill:url(#linearGradient918)" d="m 33.146038,233.55533 c -4.106758,0 -8.008176,1.19516 -8.008176,1.19516 l -1.325362,0.40357 v 6.28342 c -3.844034,0.68117 -7.598782,1.79455 -11.192778,3.31894 l -0.0075,3.73338 H 8.8788061 l 0.0098,3.98964 h 3.7236619 l 0.01505,33.34458 c 0,1.63895 0.149332,2.94192 0.56002,4.03958 0.414412,1.09781 1.161086,1.97124 2.101912,2.49391 1.877907,1.04557 4.181424,0.93269 7.291359,0.93269 h 21.146063 c 3.109936,0 5.413452,0.11282 7.29136,-0.93269 0.940822,-0.5221 1.680037,-1.39695 2.090713,-2.49391 0.410673,-1.09781 0.571209,-2.40063 0.571209,-4.03958 l -0.0076,-34.67624 H 49.68271 c 0.432156,0.002 -8.737534,1.33166 7.879479,1.33166 v -3.98964 l -3.889842,-0.002 0.0075,-3.73336 c -3.596114,-1.52568 -7.353483,-2.63909 -11.200245,-3.31894 v -6.20131 l -1.232019,-0.44447 c 0,0 -3.408609,-1.23186 -8.101509,-1.23186 z m 0,3.73337 c 3.322737,0 4.816102,0.57854 5.60012,0.82124 v 2.75904 c -1.857309,-0.20396 -3.724189,-0.30852 -5.592656,-0.31327 -1.874173,0 -3.744614,0.11282 -5.607588,0.32173 v -2.74041 c 0.993087,-0.26105 2.882195,-0.84804 5.600124,-0.84804 z" font-size="15" font-weight="400" letter-spacing="0" word-spacing="0"/>
  <rect width="41.037" height="1.058" x="12.62" y="252.49" ry="0" style="opacity:0.4"/>
  <path d="m 33.415138,233.57388 v 3.7269 c 3.110437,0.034 4.571278,0.5741 5.33094,0.80926 v 2.759 c -1.770594,-0.19444 -3.549867,-0.29199 -5.33094,-0.30541 v 52.7265 h 10.311515 c 3.109936,0 5.413636,0.11275 7.291544,-0.93276 0.940822,-0.5221 1.679636,-1.39694 2.090312,-2.4939 0.410673,-1.09781 0.571541,-2.4006 0.571541,-4.03955 l -0.0072,-33.38814 c 1.147219,0.0219 2.3026,0.0434 3.889168,0.0434 v -3.98942 l -3.889685,-0.002 0.0078,-3.73311 c -3.596114,-1.52568 -7.353588,-2.63932 -11.20035,-3.31917 v -6.20118 l -1.231966,-0.44441 c 0,0 -3.290071,-1.16696 -7.832596,-1.21595 z" style="opacity:0.15;fill:#383838"/>
  <path d="M 125.27539 16.208984 C 109.75379 16.208984 95.009766 20.726562 95.009766 20.726562 L 90 22.251953 L 90 24.251953 L 95.009766 22.726562 C 95.009766 22.726562 109.75379 18.208984 125.27539 18.208984 L 125.27734 18.21875 C 143.01429 18.21875 155.89648 22.875 155.89648 22.875 L 160.55273 24.554688 L 160.55273 22.554688 L 155.89648 20.875 C 155.89648 20.875 143.01429 16.21875 125.27734 16.21875 L 125.27539 16.208984 z M 125.30469 42.667969 C 118.2212 42.667969 111.15249 43.093231 104.11133 43.882812 L 104.11133 45.882812 C 111.15249 45.093231 118.2212 44.667969 125.30469 44.667969 C 132.36661 44.685922 139.42166 45.08069 146.44141 45.851562 L 146.44141 43.851562 C 139.42166 43.08069 132.36661 42.685922 125.30469 42.667969 z M 160.55273 45.992188 L 160.55273 47.992188 C 175.09025 50.561447 189.29046 54.76968 202.88086 60.535156 L 202.88477 58.537109 C 189.29315 52.77076 175.09168 48.561699 160.55273 45.992188 z M 90 46 C 75.471368 48.574501 61.280873 52.783448 47.697266 58.544922 L 47.667969 72.654297 L 33.558594 72.654297 L 33.564453 74.654297 L 47.667969 74.654297 L 47.697266 60.544922 C 61.280873 54.783448 75.471368 50.574501 90 48 L 90 46 z M 202.85938 72.646484 L 202.85547 74.646484 L 217.55859 74.654297 L 217.55859 72.654297 L 202.85938 72.646484 z" transform="matrix(0.26458333,0,0,0.26458333,0,229.26665)" style="fill:#efefef;opacity:0.2"/>
  <path d="M 125.27539 28.320312 C 115.0029 28.320312 107.86473 30.538745 104.11133 31.525391 L 104.11133 33.525391 C 107.86473 32.538745 115.0029 30.320312 125.27539 30.320312 C 137.83377 30.320312 143.47819 32.506537 146.44141 33.423828 L 146.44141 31.423828 C 143.47819 30.506537 137.83377 28.320312 125.27539 28.320312 z M 202.88086 58.535156 L 202.85547 70.646484 L 202.85938 70.646484 L 202.88477 58.537109 C 202.88343 58.536542 202.8822 58.535723 202.88086 58.535156 z M 33.558594 72.654297 L 33.595703 87.732422 L 47.667969 87.732422 L 47.667969 85.732422 L 33.595703 85.732422 L 33.564453 72.654297 L 33.558594 72.654297 z M 202.85742 85.601562 L 202.85742 87.601562 C 207.08649 87.678642 211.78733 87.732422 217.55859 87.732422 L 217.55859 85.732422 C 211.78733 85.732422 207.08649 85.678642 202.85742 85.601562 z M 47.724609 211.75977 L 47.724609 213.75977 C 47.724609 219.95422 48.28959 224.87871 49.841797 229.02734 C 51.408078 233.17655 54.231232 236.47768 57.787109 238.45312 C 64.884711 242.40489 73.589665 241.97852 85.34375 241.97852 L 165.26562 241.97852 C 177.01971 241.97852 185.72661 242.40466 192.82422 238.45312 C 196.38008 236.47983 199.1744 233.17333 200.72656 229.02734 C 202.27871 224.87814 202.88477 219.95422 202.88477 213.75977 L 202.88477 211.79297 C 202.88255 217.97144 202.27587 222.88574 200.72656 227.02734 C 199.1744 231.17333 196.38008 234.47983 192.82422 236.45312 C 185.72661 240.40466 177.01971 239.97852 165.26562 239.97852 L 85.34375 239.97852 C 73.589665 239.97852 64.884711 240.40489 57.787109 236.45312 C 54.231232 234.47768 51.408078 231.17655 49.841797 227.02734 C 48.28959 222.87871 47.724609 217.95422 47.724609 211.75977 z" transform="matrix(0.26458333,0,0,0.26458333,0,229.26665)" style="fill:#100000;opacity:0.2"/>
  <g style="fill:#070404;opacity:0.4" transform="matrix(0.16778551,0,0,0.14500074,5.2167631,240.13154)">
   <rect style="fill:#070404" width="24.946" height="189.593" x="94.43" y="123.13" rx="12" ry="12"/>
   <rect width="24.946" height="189.593" x="154.43" y="123.13" rx="12" ry="12" style="fill:#070404"/>
   <rect style="fill:#070404" width="24.946" height="189.593" x="214.43" y="123.13" rx="12" ry="12"/>
  </g>
 </g>
</svg>
